; generated by Slic3r 1.3.0-dev on 2017-05-04 at 07:26:01

; external perimeters extrusion width = 0.20mm (0.40mm^3/s)
; perimeters extrusion width = 0.20mm (0.54mm^3/s)
; infill extrusion width = 0.20mm (0.54mm^3/s)
; solid infill extrusion width = 0.20mm (0.54mm^3/s)
; top infill extrusion width = 0.20mm (0.36mm^3/s)

M107 ; disable fan
; # # # # # # Header
G21 		; metric values
G90 		; absolute positioning
M82 		; set extruder to absolute mode
M107 		; start with the fan off
G28 X0 Y0 Z0	; move X/Y/Z to endstops
G1 X1 Y6 Z30 F12000	; move X/Y/Z to start position

M140 S60  ; preheat bed  
M109 S210          ; wait for hotend temperature to be reached  
M190 S60  ; wait for bed temperature to be reached  

G92 E0 		; zero the extruded length
G1 F150 E20	; purge nozzle with filament
G92 E0		; zero the extruded length again
G1 F50 E6		; additional priming
G92 E0		; zero the extruded length again

; END Header
; Filament gcode

G21 ; set units to millimeters
G90 ; use absolute coordinates
M82 ; use absolute distances for extrusion
G92 E0 ; reset extrusion distance
;layer:0;
M117 Drucke Layer 0 auf 0.2 mm;
G1 Z0.200 F6000.000 ; move to next layer (0)
G1 E-5.20000 F2400.00000 ; retract
G92 E0 ; reset extrusion distance
G1 X110.422 Y105.675 F6000.000 ; move to first brim point
G1 E5.20000 F2400.00000 ; unretract
G1 F1200
G1 X110.674 Y105.451 E5.20176 ; brim
G1 X111.029 Y105.218 E5.20398 ; brim
G1 X111.324 Y105.081 E5.20568 ; brim
G1 X111.728 Y104.959 E5.20788 ; brim
G1 X112.219 Y104.902 E5.21047 ; brim
G1 X113.758 Y104.901 E5.21851 ; brim
G1 X113.977 Y104.864 E5.21967 ; brim
G1 X114.093 Y104.797 E5.22037 ; brim
G1 X114.683 Y104.247 E5.22459 ; brim
G1 X115.043 Y104.012 E5.22683 ; brim
G1 X115.504 Y103.817 E5.22945 ; brim
G1 X115.997 Y103.713 E5.23208 ; brim
G1 X116.268 Y103.698 E5.23350 ; brim
G1 X118.160 Y103.698 E5.24338 ; brim
G1 X118.497 Y103.728 E5.24515 ; brim
G1 X118.841 Y103.821 E5.24701 ; brim
G1 X119.084 Y103.928 E5.24840 ; brim
G1 X119.407 Y104.140 E5.25042 ; brim
G1 X119.627 Y104.346 E5.25199 ; brim
G1 X119.800 Y104.562 E5.25344 ; brim
G1 X119.987 Y104.898 E5.25545 ; brim
G1 X120.088 Y105.187 E5.25705 ; brim
G1 X120.142 Y105.468 E5.25854 ; brim
G1 X120.255 Y108.483 E5.27431 ; brim
G1 X120.349 Y108.890 E5.27649 ; brim
G1 X120.370 Y109.075 E5.27746 ; brim
G1 X120.370 Y110.927 E5.28714 ; brim
G1 X120.349 Y111.111 E5.28811 ; brim
G1 X120.255 Y111.516 E5.29028 ; brim
G1 X120.153 Y114.386 E5.30528 ; brim
G1 X120.130 Y114.618 E5.30650 ; brim
G1 X120.055 Y114.924 E5.30815 ; brim
G1 X119.900 Y115.276 E5.31016 ; brim
G1 X119.712 Y115.554 E5.31191 ; brim
G1 X119.495 Y115.785 E5.31357 ; brim
G1 X119.248 Y115.975 E5.31520 ; brim
G1 X118.983 Y116.121 E5.31678 ; brim
G1 X118.677 Y116.232 E5.31848 ; brim
G1 X118.378 Y116.290 E5.32007 ; brim
G1 X116.268 Y116.302 E5.33110 ; brim
G1 X115.824 Y116.262 E5.33343 ; brim
G1 X115.343 Y116.126 E5.33604 ; brim
G1 X114.894 Y115.901 E5.33866 ; brim
G1 X114.619 Y115.702 E5.34043 ; brim
G1 X114.095 Y115.205 E5.34421 ; brim
G1 X113.975 Y115.135 E5.34493 ; brim
G1 X113.757 Y115.099 E5.34609 ; brim
G1 X112.059 Y115.090 E5.35496 ; brim
G1 X111.560 Y114.999 E5.35761 ; brim
G1 X111.253 Y114.890 E5.35931 ; brim
G1 X110.880 Y114.694 E5.36151 ; brim
G1 X110.612 Y114.499 E5.36325 ; brim
G1 X110.304 Y114.197 E5.36550 ; brim
G1 X110.104 Y113.931 E5.36724 ; brim
G1 X109.901 Y113.562 E5.36944 ; brim
G1 X109.786 Y113.256 E5.37115 ; brim
G1 X109.696 Y112.841 E5.37337 ; brim
G1 X109.675 Y112.563 E5.37482 ; brim
G1 X109.630 Y109.986 E5.38829 ; brim
G1 X109.675 Y107.437 E5.40161 ; brim
G1 X109.725 Y106.987 E5.40398 ; brim
G1 X109.810 Y106.670 E5.40570 ; brim
G1 X109.976 Y106.284 E5.40789 ; brim
G1 X110.148 Y106.003 E5.40961 ; brim
G1 X110.397 Y105.702 E5.41165 ; brim
G1 X110.542 Y105.791 F6000.000 ; move to first brim point
G1 F1200
G1 X110.775 Y105.583 E5.41328 ; brim
G1 X111.110 Y105.364 E5.41537 ; brim
G1 X111.384 Y105.236 E5.41695 ; brim
G1 X111.765 Y105.121 E5.41903 ; brim
G1 X112.225 Y105.069 E5.42145 ; brim
G1 X113.764 Y105.068 E5.42949 ; brim
G1 X113.917 Y105.055 E5.43029 ; brim
G1 X114.039 Y105.019 E5.43096 ; brim
G1 X114.197 Y104.927 E5.43191 ; brim
G1 X114.727 Y104.426 E5.43572 ; brim
G1 X114.980 Y104.242 E5.43736 ; brim
G1 X115.399 Y104.031 E5.43981 ; brim
G1 X115.849 Y103.903 E5.44226 ; brim
G1 X116.270 Y103.865 E5.44446 ; brim
G1 X118.159 Y103.865 E5.45433 ; brim
G1 X118.469 Y103.892 E5.45596 ; brim
G1 X118.785 Y103.978 E5.45767 ; brim
G1 X119.006 Y104.076 E5.45893 ; brim
G1 X119.302 Y104.269 E5.46078 ; brim
G1 X119.505 Y104.459 E5.46223 ; brim
G1 X119.662 Y104.656 E5.46355 ; brim
G1 X119.834 Y104.964 E5.46539 ; brim
G1 X119.927 Y105.231 E5.46687 ; brim
G1 X119.976 Y105.487 E5.46823 ; brim
G1 X120.089 Y108.505 E5.48402 ; brim
G1 X120.185 Y108.919 E5.48623 ; brim
G1 X120.203 Y109.084 E5.48710 ; brim
G1 X120.203 Y110.917 E5.49668 ; brim
G1 X120.184 Y111.083 E5.49755 ; brim
G1 X120.089 Y111.494 E5.49976 ; brim
G1 X119.965 Y114.590 E5.51595 ; brim
G1 X119.897 Y114.872 E5.51746 ; brim
G1 X119.754 Y115.195 E5.51931 ; brim
G1 X119.582 Y115.450 E5.52091 ; brim
G1 X119.384 Y115.661 E5.52243 ; brim
G1 X119.156 Y115.836 E5.52393 ; brim
G1 X118.914 Y115.969 E5.52537 ; brim
G1 X118.634 Y116.071 E5.52693 ; brim
G1 X118.358 Y116.124 E5.52840 ; brim
G1 X116.270 Y116.135 E5.53931 ; brim
G1 X115.852 Y116.097 E5.54150 ; brim
G1 X115.401 Y115.970 E5.54395 ; brim
G1 X114.982 Y115.759 E5.54640 ; brim
G1 X114.727 Y115.575 E5.54804 ; brim
G1 X114.199 Y115.075 E5.55184 ; brim
G1 X114.037 Y114.980 E5.55282 ; brim
G1 X113.918 Y114.945 E5.55347 ; brim
G1 X113.763 Y114.932 E5.55429 ; brim
G1 X112.225 Y114.931 E5.56232 ; brim
G1 X111.765 Y114.879 E5.56474 ; brim
G1 X111.384 Y114.764 E5.56682 ; brim
G1 X110.968 Y114.553 E5.56926 ; brim
G1 X110.719 Y114.372 E5.57086 ; brim
G1 X110.429 Y114.087 E5.57299 ; brim
G1 X110.244 Y113.841 E5.57460 ; brim
G1 X110.053 Y113.493 E5.57667 ; brim
G1 X109.946 Y113.209 E5.57826 ; brim
G1 X109.861 Y112.817 E5.58035 ; brim
G1 X109.841 Y112.558 E5.58171 ; brim
G1 X109.797 Y109.987 E5.59514 ; brim
G1 X109.841 Y107.442 E5.60845 ; brim
G1 X109.888 Y107.019 E5.61067 ; brim
G1 X109.968 Y106.724 E5.61226 ; brim
G1 X110.124 Y106.360 E5.61434 ; brim
G1 X110.283 Y106.100 E5.61593 ; brim
G1 X110.517 Y105.818 E5.61784 ; brim
G1 X110.662 Y105.907 F6000.000 ; move to first brim point
G1 F1200
G1 X110.876 Y105.716 E5.61934 ; brim
G1 X111.191 Y105.510 E5.62131 ; brim
G1 X111.443 Y105.392 E5.62276 ; brim
G1 X111.801 Y105.284 E5.62471 ; brim
G1 X112.230 Y105.235 E5.62697 ; brim
G1 X113.853 Y105.230 E5.63545 ; brim
G1 X114.101 Y105.174 E5.63678 ; brim
G1 X114.302 Y105.057 E5.63799 ; brim
G1 X114.835 Y104.553 E5.64182 ; brim
G1 X115.068 Y104.384 E5.64333 ; brim
G1 X115.458 Y104.186 E5.64562 ; brim
G1 X115.878 Y104.068 E5.64789 ; brim
G1 X116.272 Y104.031 E5.64996 ; brim
G1 X118.158 Y104.031 E5.65982 ; brim
G1 X118.377 Y104.047 E5.66096 ; brim
G1 X118.647 Y104.107 E5.66241 ; brim
G1 X118.927 Y104.223 E5.66400 ; brim
G1 X119.197 Y104.399 E5.66568 ; brim
G1 X119.383 Y104.572 E5.66701 ; brim
G1 X119.525 Y104.751 E5.66820 ; brim
G1 X119.681 Y105.030 E5.66987 ; brim
G1 X119.767 Y105.275 E5.67122 ; brim
G1 X119.810 Y105.505 E5.67245 ; brim
G1 X119.923 Y108.528 E5.68825 ; brim
G1 X120.037 Y109.094 E5.69127 ; brim
G1 X120.036 Y110.908 E5.70075 ; brim
G1 X119.923 Y111.472 E5.70376 ; brim
G1 X119.801 Y114.563 E5.71992 ; brim
G1 X119.738 Y114.821 E5.72131 ; brim
G1 X119.609 Y115.115 E5.72298 ; brim
G1 X119.452 Y115.346 E5.72444 ; brim
G1 X119.273 Y115.537 E5.72581 ; brim
G1 X119.065 Y115.697 E5.72718 ; brim
G1 X118.845 Y115.817 E5.72849 ; brim
G1 X118.591 Y115.910 E5.72990 ; brim
G1 X118.338 Y115.959 E5.73125 ; brim
G1 X116.272 Y115.969 E5.74205 ; brim
G1 X115.880 Y115.933 E5.74410 ; brim
G1 X115.460 Y115.814 E5.74638 ; brim
G1 X115.069 Y115.617 E5.74867 ; brim
G1 X114.835 Y115.447 E5.75018 ; brim
G1 X114.304 Y114.945 E5.75400 ; brim
G1 X114.100 Y114.826 E5.75524 ; brim
G1 X113.950 Y114.782 E5.75605 ; brim
G1 X113.767 Y114.766 E5.75701 ; brim
G1 X112.231 Y114.765 E5.76504 ; brim
G1 X111.801 Y114.716 E5.76730 ; brim
G1 X111.443 Y114.608 E5.76925 ; brim
G1 X111.056 Y114.411 E5.77152 ; brim
G1 X110.827 Y114.244 E5.77300 ; brim
G1 X110.555 Y113.977 E5.77500 ; brim
G1 X110.384 Y113.751 E5.77648 ; brim
G1 X110.204 Y113.423 E5.77843 ; brim
G1 X110.106 Y113.162 E5.77989 ; brim
G1 X110.026 Y112.794 E5.78186 ; brim
G1 X110.008 Y112.554 E5.78312 ; brim
G1 X109.964 Y109.989 E5.79652 ; brim
G1 X110.008 Y107.446 E5.80980 ; brim
G1 X110.026 Y107.206 E5.81106 ; brim
G1 X110.106 Y106.838 E5.81303 ; brim
G1 X110.204 Y106.577 E5.81449 ; brim
G1 X110.384 Y106.249 E5.81644 ; brim
G1 X110.636 Y105.934 E5.81855 ; brim
G1 X110.782 Y106.022 F6000.000 ; move to first brim point
G1 F1200
G1 X110.978 Y105.848 E5.81992 ; brim
G1 X111.272 Y105.655 E5.82176 ; brim
G1 X111.503 Y105.548 E5.82309 ; brim
G1 X111.838 Y105.447 E5.82492 ; brim
G1 X112.236 Y105.402 E5.82701 ; brim
G1 X113.883 Y105.396 E5.83562 ; brim
G1 X114.163 Y105.329 E5.83712 ; brim
G1 X114.406 Y105.187 E5.83859 ; brim
G1 X114.942 Y104.680 E5.84245 ; brim
G1 X115.156 Y104.525 E5.84383 ; brim
G1 X115.517 Y104.342 E5.84595 ; brim
G1 X115.906 Y104.232 E5.84806 ; brim
G1 X116.273 Y104.198 E5.84999 ; brim
G1 X118.318 Y104.207 E5.86067 ; brim
G1 X118.597 Y104.266 E5.86216 ; brim
G1 X118.849 Y104.370 E5.86359 ; brim
G1 X119.092 Y104.528 E5.86510 ; brim
G1 X119.260 Y104.686 E5.86630 ; brim
G1 X119.387 Y104.845 E5.86737 ; brim
G1 X119.528 Y105.096 E5.86887 ; brim
G1 X119.606 Y105.318 E5.87010 ; brim
G1 X119.645 Y105.524 E5.87119 ; brim
G1 X119.757 Y108.550 E5.88702 ; brim
G1 X119.870 Y109.103 E5.88997 ; brim
G1 X119.870 Y110.898 E5.89935 ; brim
G1 X119.757 Y111.450 E5.90229 ; brim
G1 X119.636 Y114.536 E5.91842 ; brim
G1 X119.579 Y114.769 E5.91968 ; brim
G1 X119.463 Y115.034 E5.92119 ; brim
G1 X119.322 Y115.242 E5.92251 ; brim
G1 X119.161 Y115.412 E5.92373 ; brim
G1 X118.973 Y115.558 E5.92497 ; brim
G1 X118.777 Y115.665 E5.92614 ; brim
G1 X118.548 Y115.749 E5.92742 ; brim
G1 X118.318 Y115.793 E5.92863 ; brim
G1 X116.273 Y115.802 E5.93932 ; brim
G1 X115.908 Y115.769 E5.94124 ; brim
G1 X115.519 Y115.658 E5.94335 ; brim
G1 X115.157 Y115.475 E5.94547 ; brim
G1 X114.943 Y115.320 E5.94685 ; brim
G1 X114.408 Y114.815 E5.95070 ; brim
G1 X114.162 Y114.671 E5.95219 ; brim
G1 X113.886 Y114.604 E5.95367 ; brim
G1 X112.236 Y114.598 E5.96229 ; brim
G1 X111.838 Y114.553 E5.96438 ; brim
G1 X111.503 Y114.452 E5.96621 ; brim
G1 X111.144 Y114.269 E5.96832 ; brim
G1 X110.934 Y114.117 E5.96967 ; brim
G1 X110.680 Y113.867 E5.97153 ; brim
G1 X110.524 Y113.660 E5.97289 ; brim
G1 X110.356 Y113.354 E5.97472 ; brim
G1 X110.266 Y113.115 E5.97605 ; brim
G1 X110.191 Y112.770 E5.97789 ; brim
G1 X110.130 Y109.990 E5.99242 ; brim
G1 X110.191 Y107.230 E6.00685 ; brim
G1 X110.266 Y106.885 E6.00869 ; brim
G1 X110.356 Y106.646 E6.01002 ; brim
G1 X110.524 Y106.340 E6.01185 ; brim
G1 X110.756 Y106.050 E6.01379 ; brim
G1 X110.901 Y106.138 F6000.000 ; move to first brim point
G1 F1200
G1 X111.079 Y105.981 E6.01503 ; brim
G1 X111.353 Y105.801 E6.01674 ; brim
G1 X111.694 Y105.657 E6.01868 ; brim
G1 X111.920 Y105.600 E6.01990 ; brim
G1 X112.263 Y105.568 E6.02169 ; brim
G1 X113.776 Y105.568 E6.02960 ; brim
G1 X114.123 Y105.519 E6.03143 ; brim
G1 X114.325 Y105.438 E6.03257 ; brim
G1 X114.507 Y105.320 E6.03370 ; brim
G1 X115.050 Y104.807 E6.03761 ; brim
G1 X115.243 Y104.667 E6.03885 ; brim
G1 X115.576 Y104.498 E6.04080 ; brim
G1 X115.934 Y104.396 E6.04275 ; brim
G1 X116.275 Y104.365 E6.04454 ; brim
G1 X118.298 Y104.373 E6.05511 ; brim
G1 X118.546 Y104.425 E6.05643 ; brim
G1 X118.771 Y104.517 E6.05771 ; brim
G1 X118.987 Y104.658 E6.05905 ; brim
G1 X119.138 Y104.799 E6.06013 ; brim
G1 X119.250 Y104.939 E6.06107 ; brim
G1 X119.375 Y105.162 E6.06241 ; brim
G1 X119.445 Y105.362 E6.06351 ; brim
G1 X119.479 Y105.542 E6.06447 ; brim
G1 X119.591 Y108.572 E6.08031 ; brim
G1 X119.703 Y109.112 E6.08319 ; brim
G1 X119.703 Y110.888 E6.09247 ; brim
G1 X119.591 Y111.428 E6.09535 ; brim
G1 X119.472 Y114.508 E6.11146 ; brim
G1 X119.421 Y114.718 E6.11259 ; brim
G1 X119.317 Y114.953 E6.11393 ; brim
G1 X119.191 Y115.138 E6.11510 ; brim
G1 X119.050 Y115.288 E6.11618 ; brim
G1 X118.881 Y115.418 E6.11729 ; brim
G1 X118.708 Y115.513 E6.11832 ; brim
G1 X118.504 Y115.588 E6.11946 ; brim
G1 X118.299 Y115.627 E6.12055 ; brim
G1 X116.275 Y115.635 E6.13112 ; brim
G1 X115.936 Y115.604 E6.13291 ; brim
G1 X115.578 Y115.502 E6.13485 ; brim
G1 X115.244 Y115.334 E6.13680 ; brim
G1 X115.051 Y115.193 E6.13805 ; brim
G1 X114.512 Y114.684 E6.14192 ; brim
G1 X114.224 Y114.516 E6.14367 ; brim
G1 X113.902 Y114.438 E6.14540 ; brim
G1 X112.242 Y114.432 E6.15407 ; brim
G1 X111.875 Y114.391 E6.15600 ; brim
G1 X111.562 Y114.296 E6.15771 ; brim
G1 X111.232 Y114.128 E6.15965 ; brim
G1 X111.042 Y113.990 E6.16087 ; brim
G1 X110.805 Y113.757 E6.16261 ; brim
G1 X110.664 Y113.570 E6.16383 ; brim
G1 X110.507 Y113.284 E6.16554 ; brim
G1 X110.426 Y113.067 E6.16674 ; brim
G1 X110.356 Y112.747 E6.16846 ; brim
G1 X110.297 Y109.992 E6.18286 ; brim
G1 X110.356 Y107.253 E6.19717 ; brim
G1 X110.426 Y106.933 E6.19889 ; brim
G1 X110.507 Y106.716 E6.20009 ; brim
G1 X110.664 Y106.430 E6.20180 ; brim
G1 X110.876 Y106.166 E6.20357 ; brim
G1 X111.021 Y106.254 F6000.000 ; move to first brim point
G1 F1200
G1 X111.180 Y106.113 E6.20468 ; brim
G1 X111.434 Y105.947 E6.20626 ; brim
G1 X111.746 Y105.815 E6.20804 ; brim
G1 X111.949 Y105.765 E6.20912 ; brim
G1 X112.264 Y105.735 E6.21078 ; brim
G1 X113.780 Y105.735 E6.21870 ; brim
G1 X113.942 Y105.724 E6.21955 ; brim
G1 X114.170 Y105.679 E6.22076 ; brim
G1 X114.402 Y105.586 E6.22207 ; brim
G1 X114.612 Y105.450 E6.22337 ; brim
G1 X115.158 Y104.934 E6.22730 ; brim
G1 X115.331 Y104.809 E6.22842 ; brim
G1 X115.635 Y104.654 E6.23020 ; brim
G1 X115.962 Y104.560 E6.23198 ; brim
G1 X116.277 Y104.531 E6.23363 ; brim
G1 X118.279 Y104.538 E6.24409 ; brim
G1 X118.495 Y104.583 E6.24525 ; brim
G1 X118.693 Y104.665 E6.24636 ; brim
G1 X118.882 Y104.787 E6.24754 ; brim
G1 X119.016 Y104.913 E6.24850 ; brim
G1 X119.112 Y105.033 E6.24930 ; brim
G1 X119.222 Y105.229 E6.25048 ; brim
G1 X119.284 Y105.405 E6.25145 ; brim
G1 X119.313 Y105.561 E6.25228 ; brim
G1 X119.425 Y108.594 E6.26814 ; brim
G1 X119.537 Y109.122 E6.27096 ; brim
G1 X119.536 Y110.879 E6.28014 ; brim
G1 X119.425 Y111.406 E6.28296 ; brim
G1 X119.308 Y114.481 E6.29903 ; brim
G1 X119.262 Y114.667 E6.30003 ; brim
G1 X119.171 Y114.872 E6.30121 ; brim
G1 X119.061 Y115.034 E6.30223 ; brim
G1 X118.939 Y115.164 E6.30316 ; brim
G1 X118.789 Y115.279 E6.30415 ; brim
G1 X118.596 Y115.381 E6.30529 ; brim
G1 X118.420 Y115.437 E6.30625 ; brim
G1 X118.246 Y115.465 E6.30718 ; brim
G1 X116.277 Y115.469 E6.31747 ; brim
G1 X115.964 Y115.440 E6.31911 ; brim
G1 X115.636 Y115.346 E6.32089 ; brim
G1 X115.332 Y115.192 E6.32267 ; brim
G1 X115.159 Y115.066 E6.32379 ; brim
G1 X114.613 Y114.551 E6.32771 ; brim
G1 X114.405 Y114.416 E6.32901 ; brim
G1 X114.287 Y114.361 E6.32969 ; brim
G1 X114.048 Y114.291 E6.33099 ; brim
G1 X113.917 Y114.272 E6.33168 ; brim
G1 X112.264 Y114.265 E6.34032 ; brim
G1 X111.911 Y114.228 E6.34217 ; brim
G1 X111.622 Y114.141 E6.34375 ; brim
G1 X111.320 Y113.986 E6.34552 ; brim
G1 X111.150 Y113.862 E6.34662 ; brim
G1 X110.931 Y113.647 E6.34823 ; brim
G1 X110.804 Y113.479 E6.34933 ; brim
G1 X110.659 Y113.215 E6.35090 ; brim
G1 X110.586 Y113.020 E6.35199 ; brim
G1 X110.521 Y112.723 E6.35358 ; brim
G1 X110.464 Y109.993 E6.36784 ; brim
G1 X110.521 Y107.277 E6.38204 ; brim
G1 X110.586 Y106.980 E6.38363 ; brim
G1 X110.659 Y106.785 E6.38471 ; brim
G1 X110.804 Y106.521 E6.38629 ; brim
G1 X110.996 Y106.282 E6.38789 ; brim
G1 X111.141 Y106.370 F6000.000 ; move to first brim point
G1 F1200
G1 X111.281 Y106.246 E6.38887 ; brim
G1 X111.515 Y106.093 E6.39033 ; brim
G1 X111.798 Y105.974 E6.39194 ; brim
G1 X111.977 Y105.929 E6.39290 ; brim
G1 X112.266 Y105.901 E6.39442 ; brim
G1 X113.784 Y105.901 E6.40235 ; brim
G1 X114.074 Y105.874 E6.40387 ; brim
G1 X114.217 Y105.839 E6.40464 ; brim
G1 X114.479 Y105.734 E6.40611 ; brim
