; generated by Slic3r 1.3.0-dev on 2017-06-06 at 13:55:24

; external perimeters extrusion width = 0.60mm (4.00mm^3/s)
; perimeters extrusion width = 0.60mm (4.00mm^3/s)
; infill extrusion width = 0.60mm (4.00mm^3/s)
; solid infill extrusion width = 0.60mm (4.00mm^3/s)
; top infill extrusion width = 0.60mm (4.00mm^3/s)
; support material extrusion width = 0.40mm (3.77mm^3/s)

M107 ; disable fan
; # # # # # # Header
G21 		; metric values
G90 		; absolute positioning
M82 		; set extruder to absolute mode
M107 		; start with the fan off
G28 X0 Y0 Z0	; move X/Y/Z to endstops
G1 X1 Y6 Z30 F12000	; move X/Y/Z to start position

M140 S60  ; preheat bed  
M109 S210          ; wait for hotend temperature to be reached  
M190 S60  ; wait for bed temperature to be reached  

G92 E0 		; zero the extruded length
G1 F150 E18	; purge nozzle with filament
G92 E0		; zero the extruded length again
G1 F50 E6		; additional priming
G92 E0		; zero the extruded length again

; END Header

G21 ; set units to millimeters
G90 ; use absolute coordinates
M82 ; use absolute distances for extrusion
G92 E0 ; reset extrusion distance
;layer:0;
M117 Drucke Layer 0 auf 0.4 mm;
G1 Z0.400 F6000.000 ; move to next layer (0)
G1 E-5.20000 F2400.00000 ; retract
G92 E0 ; reset extrusion distance
G1 X37.951 Y34.895 F6000.000 ; move to first skirt point
G1 E5.20000 F2400.00000 ; unretract
G1 F1021.08
G1 X38.926 Y33.870 E5.24624 ; skirt
G1 X39.954 Y32.898 E5.29248 ; skirt
G1 X41.031 Y31.982 E5.33872 ; skirt
G1 X42.154 Y31.122 E5.38496 ; skirt
G1 X43.321 Y30.323 E5.43121 ; skirt
G1 X44.528 Y29.586 E5.47745 ; skirt
G1 X45.771 Y28.913 E5.52369 ; skirt
G1 X47.049 Y28.306 E5.56993 ; skirt
G1 X48.356 Y27.766 E5.61617 ; skirt
G1 X69.441 Y189.453 E20.08126 ; perimeter
G1 X68.250 Y190.021 E20.12440 ; perimeter
G1 X67.031 Y190.526 E20.16753 ; perimeter
G1 X65.787 Y190.967 E20.21067 ; perimeter
G1 X64.522 Y191.341 E20.25380 ; perimeter
G1 X63.239 Y191.649 E20.29694 ; perimeter
G1 X61.942 Y191.890 E20.34008 ; perimeter
G1 X60.634 Y192.062 E20.38321 ; perimeter
G1 X60.026 Y192.110 E20.40317 ; perimeter
G1 X59.591 Y191.626 F6000.000 ; move inwards before travel
G1 E15.20317 F2400.00000 ; retract
G92 E0 ; reset extrusion distance
M107 ; disable fan

; # # # # # # Footer
M104 S0			; extruder heater off
M140 S0 			; heated bed heater off (if you have it)
G91 			; relative coordinates
G1 E-4 F300 		; retract the filament a bit
G1 Z+0.5 E-3.5 X-10 Y-10 F6000  ; move Z up a bit and retract filament even more
; G28 X0 Y0  		; move X/Y to min endstops, so the head is out of the way
; G28 Z0  			; move bed

; END Footer
; filament used = 19751.3mm (124.2cm3)
; filament used = 154.1g
; filament cost = 5.4
; total filament cost = 5.4

; avoid_crossing_perimeters = 0
; bed_shape = 0x-5,230x-5,230x225,0x225
; bed_temperature = 60
; before_layer_gcode = ;layer:[layer_num];\nM117 Drucke Layer [layer_num] auf [layer_z] mm;
; between_objects_gcode = 
; bridge_acceleration = 0
; bridge_fan_speed = 100
; brim_connections_width = 0
; brim_width = 0
; complete_objects = 1
; cooling = 1
; default_acceleration = 0
; disable_fan_first_layers = 3
; duplicate_distance = 6
; end_filament_gcode = ""
; end_gcode = ; # # # # # # Footer\nM104 S0			; extruder heater off\nM140 S0 			; heated bed heater off (if you have it)\nG91 			; relative coordinates\nG1 E-4 F300 		; retract the filament a bit\nG1 Z+0.5 E-3.5 X-10 Y-10 F6000  ; move Z up a bit and retract filament even more\n; G28 X0 Y0  		; move X/Y to min endstops, so the head is out of the way\n; G28 Z0  			; move bed\n\n; END Footer
; extruder_clearance_height = 65
; extruder_clearance_radius = 63
; extruder_offset = 0x0
; extrusion_axis = E
; extrusion_multiplier = 1
; fan_always_on = 1
; fan_below_layer_time = 60
; filament_colour = #000000
; filament_cost = 35.33
; filament_density = 1.24
; filament_diameter = 2.83
; filament_max_volumetric_speed = 3.5
; filament_notes = ""
; first_layer_acceleration = 0
; first_layer_bed_temperature = 60
; first_layer_extrusion_width = 0.6
; first_layer_speed = 20
; first_layer_temperature = 210
; gcode_arcs = 0
; gcode_comments = 1
; gcode_flavor = reprap
; has_heatbed = 1
; infill_acceleration = 0
; infill_first = 1
; interior_brim_width = 0
; layer_gcode = 
; max_fan_speed = 70
; max_print_speed = 30
; max_volumetric_speed = 4
; min_fan_speed = 20
; min_print_speed = 10
; min_skirt_length = 6
; notes = 
; nozzle_diameter = 0.6
; only_retract_when_crossing_perimeters = 1
; ooze_prevention = 0
; output_filename_format = [input_filename_base]_[timestamp].gcode
; perimeter_acceleration = 0
; post_process = 
; pressure_advance = 0
; printer_notes = ""
; resolution = 0
; retract_before_travel = 8
; retract_layer_change = 0
; retract_length = 5.2
; retract_length_toolchange = 10
; retract_lift = 0
; retract_lift_above = 0
; retract_lift_below = 0
; retract_restart_extra = 0
; retract_restart_extra_toolchange = 0
; retract_speed = 40
; skirt_distance = 1
; skirt_height = 1
; skirts = 1
; slowdown_below_layer_time = 10
; spiral_vase = 0
; standby_temperature_delta = -5
; start_filament_gcode = ""
; start_gcode = ; # # # # # # Header\nG21 		; metric values\nG90 		; absolute positioning\nM82 		; set extruder to absolute mode\nM107 		; start with the fan off\nG28 X0 Y0 Z0	; move X/Y/Z to endstops\nG1 X1 Y6 Z30 F12000	; move X/Y/Z to start position\n\nM140 S[first_layer_bed_temperature]  ; preheat bed  \nM109 S[first_layer_temperature]          ; wait for hotend temperature to be reached  \nM190 S[first_layer_bed_temperature]  ; wait for bed temperature to be reached  \n\nG92 E0 		; zero the extruded length\nG1 F150 E18	; purge nozzle with filament\nG92 E0		; zero the extruded length again\nG1 F50 E6		; additional priming\nG92 E0		; zero the extruded length again\n\n; END Header
; temperature = 210
; threads = 7
; toolchange_gcode = 
; travel_speed = 100
; use_firmware_retraction = 0
; use_relative_e_distances = 0
; use_volumetric_e = 0
; vibration_limit = 0
; wipe = 0
; z_offset = 0
; z_steps_per_mm = 0
; dont_support_bridges = 0
; extrusion_width = 0.6
; first_layer_height = 0.4
; infill_only_where_needed = 0
; interface_shells = 0
; layer_height = 0.4
; raft_layers = 0
; seam_position = aligned
; support_material = 1
; support_material_angle = 0
; support_material_buildplate_only = 0
; support_material_contact_distance = 0.2
; support_material_enforce_layers = 0
; support_material_extruder = 1
; support_material_extrusion_width = 0.4
; support_material_interface_extruder = 1
; support_material_interface_layers = 4
; support_material_interface_spacing = 0.8
; support_material_interface_speed = 100%
; support_material_pattern = rectilinear
; support_material_spacing = 2
; support_material_speed = 30
; support_material_threshold = 20
; xy_size_compensation = 0
; bottom_infill_pattern = rectilinear
; bottom_solid_layers = 4
; bridge_flow_ratio = 1
; bridge_speed = 30
; external_perimeter_extrusion_width = 0.6
; external_perimeter_speed = 75%
; external_perimeters_first = 0
; extra_perimeters = 1
; fill_angle = 45
; fill_density = 15%
; fill_gaps = 1
; fill_pattern = 3dhoneycomb
; gap_fill_speed = 20
; infill_every_layers = 1
; infill_extruder = 1
; infill_extrusion_width = 0.6
; infill_overlap = 20%
; infill_speed = 30
; overhangs = 1
; perimeter_extruder = 1
; perimeter_extrusion_width = 0.6
; perimeter_speed = 30
; perimeters = 3
; small_perimeter_speed = 75%
; solid_infill_below_area = 70
; solid_infill_every_layers = 0
; solid_infill_extruder = 1
; solid_infill_extrusion_width = 0.6
; solid_infill_speed = 100%
; thin_walls = 0
; top_infill_extrusion_width = 0.6
; top_infill_pattern = rectilinear
; top_solid_infill_speed = 20
; top_solid_layers = 4
