; generated by Slic3r 1.3.0-dev on 2017-12-07 at 08:05:13

; external perimeters extrusion width = 0.10mm (0.18mm^3/s)
; perimeters extrusion width = 0.10mm (0.24mm^3/s)
; infill extrusion width = 0.20mm (0.54mm^3/s)
; solid infill extrusion width = 0.10mm (0.24mm^3/s)
; top infill extrusion width = 0.10mm (0.18mm^3/s)
; support material extrusion width = 0.15mm (0.39mm^3/s)

M107 ; disable fan
; # # # # # # Header
G21 				; metric values
G90 				; absolute positioning
M82 				; set extruder to absolute mode
M107 				; start with the fan off
G28 X0 Y0 Z0		; move X/Y/Z to endstops
G1 X1 Y6 Z30 F12000	; move X/Y/Z to start position

M140 S60		; preheat bed  
M109 S210			; wait for hotend temperature to be reached  
M190 S60		; wait for bed temperature to be reached  

G92 E0 		; zero the extruded length
G1 F150 E22	; purge nozzle with filament
G92 E0		; zero the extruded length again
G1 F50 E6	; additional priming
G92 E0		; zero the extruded length again

; # # # # # # END Header

G21 ; set units to millimeters
G90 ; use absolute coordinates
M82 ; use absolute distances for extrusion
G92 E0 ; reset extrusion distance
;layer:0;
M117 Layer 0.2;
G1 Z0.200 F6000.000 ; move to next layer (0)
G1 E-5.20000 F2400.00000 ; retract
G92 E0 ; reset extrusion distance
G1 X114.595 Y106.049 F6000.000 ; move to first skirt point
G1 E5.20000 F2400.00000 ; unretract
G1 F1097.09
G1 X115.133 Y105.572 E5.22155 ; skirt
G1 X115.649 Y105.177 E5.24105 ; skirt
G1 X116.026 Y104.919 E5.25477 ; skirt
G1 X116.773 Y104.483 E5.28071 ; skirt
G1 X117.613 Y104.097 E5.30845 ; skirt
G1 X122.710 Y102.051 E5.47326 ; skirt
G1 X123.650 Y101.731 E5.50304 ; skirt
G1 X124.198 Y101.595 E5.51998 ; skirt
G1 X125.018 Y101.449 E5.54499 ; skirt
G1 X126.382 Y101.372 E5.58598 ; skirt
G1 X132.290 Y101.592 E5.76336 ; skirt
G1 X132.731 Y101.631 E5.77664 ; skirt
G1 X133.359 Y101.719 E5.79567 ; skirt
G1 X134.020 Y101.860 E5.81595 ; skirt
G1 X134.946 Y102.142 E5.84501 ; skirt
G1 X135.307 Y102.279 E5.85658 ; skirt
G1 X135.879 Y102.535 E5.87538 ; skirt
G1 X140.797 Y104.944 E6.03972 ; skirt
G1 X141.339 Y105.234 E6.05816 ; skirt
G1 X142.109 Y105.728 E6.08559 ; skirt
G1 X142.726 Y106.205 E6.10900 ; skirt
G1 X143.881 Y107.365 E6.15814 ; skirt
G1 X144.278 Y107.881 E6.17766 ; skirt
G1 X145.157 Y109.403 E6.23038 ; skirt
G1 X145.414 Y110.033 E6.25080 ; skirt
G1 X145.609 Y110.630 E6.26965 ; skirt
G1 X145.725 Y111.072 E6.28337 ; skirt
G1 X145.907 Y112.046 E6.31309 ; skirt
G1 X146.199 Y114.336 E6.38236 ; skirt
G1 X146.262 Y115.310 E6.41164 ; skirt
G1 X146.260 Y115.885 E6.42890 ; skirt
G1 X146.230 Y116.469 E6.44645 ; skirt
G1 X146.171 Y117.038 E6.46361 ; skirt
G1 X146.070 Y117.668 E6.48275 ; skirt
G1 X145.947 Y118.243 E6.50040 ; skirt
G1 X145.796 Y118.811 E6.51805 ; skirt
G1 X145.649 Y119.272 E6.53256 ; skirt
G1 X145.444 Y119.820 E6.55013 ; skirt
G1 X144.345 Y122.245 E6.63001 ; skirt
G1 X144.184 Y122.578 E6.64110 ; skirt
G1 X143.825 Y123.219 E6.66316 ; skirt
G1 X142.956 Y124.404 E6.70723 ; skirt
G1 X142.513 Y124.881 E6.72677 ; skirt
G1 X141.550 Y125.726 E6.76521 ; skirt
G1 X141.128 Y126.029 E6.78079 ; skirt
G1 X140.511 Y126.416 E6.80266 ; skirt
G1 X139.101 Y127.070 E6.84930 ; skirt
G1 X138.694 Y127.208 E6.86217 ; skirt
G1 X137.426 Y127.512 E6.90131 ; skirt
G1 X135.711 Y127.630 E6.95289 ; skirt
G1 X119.702 Y127.163 E7.43346 ; skirt
G1 X119.452 Y127.143 E7.44097 ; skirt
G1 X118.142 Y126.923 E7.48085 ; skirt
G1 X117.759 Y126.822 E7.49273 ; skirt
G1 X117.284 Y126.672 E7.50765 ; skirt
G1 X116.821 Y126.499 E7.52248 ; skirt
G1 X116.341 Y126.289 E7.53822 ; skirt
G1 X115.702 Y125.958 E7.55980 ; skirt
G1 X115.117 Y125.599 E7.58041 ; skirt
G1 X113.082 Y123.748 E7.66293 ; skirt
G1 X112.770 Y123.338 E7.67841 ; skirt
G1 X112.492 Y122.928 E7.69327 ; skirt
G1 X111.870 Y121.782 E7.73239 ; skirt
G1 X111.417 Y120.547 E7.77187 ; skirt
G1 X111.216 Y119.699 E7.79802 ; skirt
G1 X110.845 Y117.159 E7.87503 ; skirt
G1 X110.767 Y116.359 E7.89914 ; skirt
G1 X110.748 Y116.010 E7.90964 ; skirt
G1 X110.747 Y115.061 E7.93813 ; skirt
G1 X110.788 Y114.462 E7.95614 ; skirt
G1 X110.858 Y113.887 E7.97352 ; skirt
G1 X110.972 Y113.247 E7.99302 ; skirt
G1 X111.096 Y112.715 E8.00943 ; skirt
G1 X111.250 Y112.173 E8.02632 ; skirt
G1 X111.455 Y111.572 E8.04538 ; skirt
G1 X112.509 Y109.025 E8.12808 ; skirt
G1 X112.872 Y108.293 E8.15261 ; skirt
G1 X113.022 Y108.029 E8.16171 ; skirt
G1 X113.718 Y107.019 E8.19851 ; skirt
G1 X113.873 Y106.826 E8.20594 ; skirt
G1 X114.570 Y106.076 E8.23666 ; skirt
G1 X115.256 Y106.741 F6000.000 ; move to first skirt point
G1 F1097.09
G1 X115.738 Y106.314 E8.25596 ; skirt
G1 X116.206 Y105.955 E8.27366 ; skirt
G1 X116.548 Y105.721 E8.28610 ; skirt
G1 X117.218 Y105.331 E8.30935 ; skirt
G1 X117.969 Y104.985 E8.33418 ; skirt
G1 X123.067 Y102.940 E8.49898 ; skirt
G1 X123.907 Y102.653 E8.52563 ; skirt
G1 X124.410 Y102.528 E8.54116 ; skirt
G1 X125.146 Y102.397 E8.56359 ; skirt
G1 X126.362 Y102.329 E8.60014 ; skirt
G1 X132.226 Y102.547 E8.77622 ; skirt
G1 X133.192 Y102.662 E8.80540 ; skirt
G1 X133.788 Y102.788 E8.82369 ; skirt
G1 X134.625 Y103.044 E8.84995 ; skirt
G1 X135.458 Y103.394 E8.87706 ; skirt
G1 X140.376 Y105.804 E9.04139 ; skirt
G1 X140.862 Y106.063 E9.05793 ; skirt
G1 X141.553 Y106.508 E9.08257 ; skirt
G1 X142.113 Y106.940 E9.10381 ; skirt
G1 X143.143 Y107.975 E9.14762 ; skirt
G1 X143.501 Y108.440 E9.16522 ; skirt
G1 X144.284 Y109.796 E9.21222 ; skirt
G1 X144.514 Y110.360 E9.23049 ; skirt
G1 X144.690 Y110.896 E9.24741 ; skirt
G1 X144.794 Y111.292 E9.25970 ; skirt
G1 X144.916 Y111.889 E9.27799 ; skirt
G1 X144.977 Y112.311 E9.29077 ; skirt
G1 X145.248 Y114.441 E9.35521 ; skirt
G1 X145.306 Y115.329 E9.38190 ; skirt
G1 X145.302 Y115.925 E9.39980 ; skirt
G1 X145.268 Y116.495 E9.41692 ; skirt
G1 X145.196 Y117.101 E9.43524 ; skirt
G1 X145.120 Y117.542 E9.44866 ; skirt
G1 X144.867 Y118.578 E9.48066 ; skirt
G1 X144.534 Y119.517 E9.51054 ; skirt
G1 X143.476 Y121.845 E9.58729 ; skirt
G1 X143.330 Y122.146 E9.59731 ; skirt
G1 X143.010 Y122.718 E9.61697 ; skirt
G1 X142.234 Y123.775 E9.65634 ; skirt
G1 X141.835 Y124.206 E9.67394 ; skirt
G1 X140.972 Y124.963 E9.70839 ; skirt
G1 X140.591 Y125.237 E9.72247 ; skirt
G1 X140.033 Y125.586 E9.74224 ; skirt
G1 X138.775 Y126.170 E9.78383 ; skirt
G1 X138.403 Y126.296 E9.79562 ; skirt
G1 X137.268 Y126.568 E9.83066 ; skirt
G1 X135.738 Y126.674 E9.87665 ; skirt
G1 X119.764 Y126.208 E10.35618 ; skirt
G1 X119.539 Y126.190 E10.36294 ; skirt
G1 X118.371 Y125.994 E10.39849 ; skirt
G1 X118.021 Y125.901 E10.40935 ; skirt
G1 X117.178 Y125.611 E10.43610 ; skirt
G1 X116.748 Y125.424 E10.45017 ; skirt
G1 X116.172 Y125.125 E10.46965 ; skirt
G1 X115.643 Y124.799 E10.48828 ; skirt
G1 X113.829 Y123.149 E10.56186 ; skirt
G1 X113.297 Y122.411 E10.58917 ; skirt
G1 X112.743 Y121.389 E10.62405 ; skirt
G1 X112.337 Y120.285 E10.65935 ; skirt
G1 X112.157 Y119.524 E10.68280 ; skirt
G1 X111.792 Y117.024 E10.75860 ; skirt
G1 X111.740 Y116.554 E10.77280 ; skirt
G1 X111.703 Y115.958 E10.79072 ; skirt
G1 X111.718 Y114.842 E10.82422 ; skirt
G1 X111.762 Y114.355 E10.83887 ; skirt
G1 X111.838 Y113.818 E10.85517 ; skirt
G1 X111.939 Y113.302 E10.87094 ; skirt
G1 X112.087 Y112.715 E10.88909 ; skirt
G1 X112.407 Y111.763 E10.91922 ; skirt
G1 X113.385 Y109.412 E10.99563 ; skirt
G1 X113.711 Y108.753 E11.01770 ; skirt
G1 X113.846 Y108.516 E11.02589 ; skirt
G1 X114.466 Y107.615 E11.05870 ; skirt
G1 X114.613 Y107.434 E11.06568 ; skirt
G1 X115.231 Y106.768 E11.09295 ; skirt
G1 X115.917 Y107.433 F6000.000 ; move to first skirt point
G1 F1097.09
G1 X116.343 Y107.056 E11.11001 ; skirt
G1 X116.763 Y106.733 E11.12590 ; skirt
G1 X117.070 Y106.523 E11.13707 ; skirt
G1 X117.663 Y106.178 E11.15763 ; skirt
G1 X118.325 Y105.873 E11.17953 ; skirt
G1 X123.423 Y103.828 E11.34434 ; skirt
G1 X124.165 Y103.575 E11.36785 ; skirt
G1 X124.622 Y103.461 E11.38197 ; skirt
G1 X125.273 Y103.346 E11.40182 ; skirt
G1 X126.341 Y103.286 E11.43392 ; skirt
G1 X132.162 Y103.502 E11.60871 ; skirt
G1 X133.025 Y103.604 E11.63476 ; skirt
G1 X133.556 Y103.717 E11.65106 ; skirt
G1 X134.304 Y103.945 E11.67454 ; skirt
G1 X135.037 Y104.254 E11.69838 ; skirt
G1 X139.955 Y106.663 E11.86272 ; skirt
G1 X140.345 Y106.870 E11.87598 ; skirt
G1 X140.998 Y107.287 E11.89920 ; skirt
G1 X141.501 Y107.675 E11.91827 ; skirt
G1 X142.405 Y108.584 E11.95675 ; skirt
G1 X142.724 Y108.998 E11.97243 ; skirt
G1 X143.412 Y110.190 E12.01371 ; skirt
G1 X143.615 Y110.688 E12.02984 ; skirt
G1 X143.863 Y111.512 E12.05567 ; skirt
G1 X144.009 Y112.297 E12.07962 ; skirt
G1 X144.285 Y114.438 E12.14441 ; skirt
G1 X144.338 Y115.075 E12.16357 ; skirt
G1 X144.339 Y116.049 E12.19280 ; skirt
G1 X144.244 Y116.996 E12.22136 ; skirt
G1 X144.036 Y117.995 E12.25197 ; skirt
G1 X143.760 Y118.870 E12.27951 ; skirt
G1 X143.472 Y119.564 E12.30205 ; skirt
G1 X142.476 Y121.713 E12.37313 ; skirt
G1 X142.145 Y122.295 E12.39323 ; skirt
G1 X141.512 Y123.147 E12.42507 ; skirt
G1 X141.046 Y123.640 E12.44542 ; skirt
G1 X140.281 Y124.285 E12.47546 ; skirt
G1 X139.555 Y124.757 E12.50144 ; skirt
G1 X138.450 Y125.270 E12.53797 ; skirt
G1 X138.112 Y125.385 E12.54870 ; skirt
G1 X137.109 Y125.624 E12.57963 ; skirt
G1 X135.766 Y125.717 E12.62003 ; skirt
G1 X119.847 Y125.254 E13.09790 ; skirt
G1 X119.626 Y125.237 E13.10453 ; skirt
G1 X118.600 Y125.065 E13.13576 ; skirt
G1 X118.283 Y124.981 E13.14559 ; skirt
G1 X117.534 Y124.723 E13.16935 ; skirt
G1 X116.821 Y124.389 E13.19300 ; skirt
G1 X116.169 Y124.000 E13.21578 ; skirt
G1 X114.575 Y122.550 E13.28041 ; skirt
G1 X114.102 Y121.893 E13.30470 ; skirt
G1 X113.615 Y120.996 E13.33533 ; skirt
G1 X113.258 Y120.022 E13.36645 ; skirt
G1 X113.098 Y119.350 E13.38720 ; skirt
G1 X112.740 Y116.890 E13.46180 ; skirt
G1 X112.678 Y116.255 E13.48093 ; skirt
G1 X112.659 Y115.906 E13.49142 ; skirt
G1 X112.658 Y115.162 E13.51374 ; skirt
G1 X112.693 Y114.645 E13.52930 ; skirt
G1 X112.751 Y114.171 E13.54360 ; skirt
G1 X112.845 Y113.641 E13.55978 ; skirt
G1 X112.951 Y113.185 E13.57381 ; skirt
G1 X113.233 Y112.283 E13.60217 ; skirt
G1 X114.200 Y109.938 E13.67829 ; skirt
G1 X114.550 Y109.213 E13.70243 ; skirt
G1 X114.670 Y109.003 E13.70970 ; skirt
G1 X115.215 Y108.212 E13.73852 ; skirt
G1 X115.892 Y107.460 E13.76887 ; skirt
G1 X116.578 Y108.125 F6000.000 ; move to first skirt point
G1 F1097.09
G1 X117.046 Y107.719 E13.78744 ; skirt
G1 X117.573 Y107.338 E13.80697 ; skirt
G1 X118.074 Y107.043 E13.82440 ; skirt
G1 X118.539 Y106.821 E13.83987 ; skirt
G1 X123.780 Y104.716 E14.00932 ; skirt
G1 X124.422 Y104.497 E14.02970 ; skirt
G1 X124.834 Y104.395 E14.04241 ; skirt
G1 X125.400 Y104.294 E14.05967 ; skirt
G1 X126.320 Y104.243 E14.08733 ; skirt
G1 X132.098 Y104.457 E14.26083 ; skirt
G1 X132.857 Y104.546 E14.28376 ; skirt
G1 X133.300 Y104.639 E14.29734 ; skirt
G1 X133.983 Y104.847 E14.31875 ; skirt
G1 X134.616 Y105.113 E14.33934 ; skirt
G1 X139.534 Y107.523 E14.50368 ; skirt
G1 X140.226 Y107.919 E14.52761 ; skirt
G1 X140.888 Y108.411 E14.55234 ; skirt
G1 X141.667 Y109.194 E14.58550 ; skirt
G1 X141.926 Y109.528 E14.59817 ; skirt
G1 X142.540 Y110.584 E14.63481 ; skirt
G1 X142.591 Y110.701 E14.63866 ; skirt
G1 X142.851 Y111.428 E14.66183 ; skirt
G1 X143.030 Y112.217 E14.68610 ; skirt
G1 X143.323 Y114.457 E14.75387 ; skirt
G1 X143.379 Y115.067 E14.77226 ; skirt
G1 X143.384 Y115.983 E14.79974 ; skirt
G1 X143.298 Y116.852 E14.82595 ; skirt
G1 X143.110 Y117.753 E14.85356 ; skirt
G1 X142.863 Y118.536 E14.87821 ; skirt
G1 X142.603 Y119.164 E14.89860 ; skirt
G1 X141.622 Y121.281 E14.96860 ; skirt
G1 X141.335 Y121.785 E14.98601 ; skirt
G1 X140.790 Y122.519 E15.01345 ; skirt
G1 X140.378 Y122.955 E15.03144 ; skirt
G1 X139.707 Y123.519 E15.05775 ; skirt
G1 X139.077 Y123.928 E15.08028 ; skirt
G1 X138.125 Y124.370 E15.11176 ; skirt
G1 X137.821 Y124.473 E15.12141 ; skirt
G1 X136.951 Y124.681 E15.14824 ; skirt
G1 X135.794 Y124.760 E15.18305 ; skirt
G1 X119.909 Y124.299 E15.65989 ; skirt
G1 X119.713 Y124.284 E15.66576 ; skirt
G1 X118.829 Y124.135 E15.69267 ; skirt
G1 X118.545 Y124.060 E15.70147 ; skirt
G1 X117.891 Y123.835 E15.72224 ; skirt
G1 X117.273 Y123.546 E15.74271 ; skirt
G1 X116.694 Y123.200 E15.76294 ; skirt
G1 X115.322 Y121.951 E15.81862 ; skirt
G1 X114.908 Y121.376 E15.83988 ; skirt
G1 X114.488 Y120.603 E15.86628 ; skirt
G1 X114.178 Y119.760 E15.89322 ; skirt
G1 X114.032 Y119.139 E15.91237 ; skirt
G1 X113.688 Y116.755 E15.98465 ; skirt
G1 X113.615 Y115.853 E16.01178 ; skirt
G1 X113.629 Y114.954 E16.03876 ; skirt
G1 X113.727 Y114.130 E16.06368 ; skirt
G1 X113.927 Y113.243 E16.09097 ; skirt
G1 X114.189 Y112.460 E16.11572 ; skirt
G1 X115.135 Y110.186 E16.18963 ; skirt
G1 X115.389 Y109.674 E16.20680 ; skirt
G1 X115.494 Y109.490 E16.21315 ; skirt
G1 X115.964 Y108.808 E16.23798 ; skirt
G1 X116.553 Y108.153 E16.26443 ; skirt
G1 E11.06443 F2400.00000 ; retract
G92 E0 ; reset extrusion distance
G1 X136.885 Y115.976 F6000.000 ; move to first perimeter point
G1 E5.20000 F2400.00000 ; unretract
G1 F1097.09
G1 X136.915 Y115.820 E5.20478 ; perimeter
G1 X136.930 Y115.564 E5.21248 ; perimeter
G1 X136.909 Y115.266 E5.22143 ; perimeter
G1 X136.861 Y115.031 E5.22862 ; perimeter
G1 X136.786 Y114.799 E5.23593 ; perimeter
G1 X136.650 Y114.514 E5.24541 ; perimeter
G1 X136.355 Y114.120 E5.26017 ; perimeter
G1 X136.026 Y113.833 E5.27328 ; perimeter
G1 X135.410 Y113.402 E5.29585 ; perimeter
G1 X134.778 Y113.011 E5.31813 ; perimeter
G1 X134.024 Y112.606 E5.34382 ; perimeter
G1 X134.431 Y112.809 E5.35745 ; perimeter
G1 X135.003 Y113.136 E5.37724 ; perimeter
G1 X135.806 Y113.650 E5.40583 ; perimeter
G1 X136.123 Y113.712 E5.41553 ; perimeter
G1 X136.408 Y113.658 E5.42424 ; perimeter
G1 X136.595 Y113.546 E5.43077 ; perimeter
G1 X136.682 Y113.469 E5.43425 ; perimeter
G1 X136.833 Y114.826 E5.47520 ; perimeter
G1 X136.918 Y115.279 E5.48905 ; perimeter
G1 X136.936 Y115.566 E5.49769 ; perimeter
G1 X136.918 Y115.840 E5.50592 ; perimeter
G1 X136.894 Y115.940 E5.50899 ; perimeter
G1 X137.008 Y116.078 F6000.000 ; move inwards before travel
G1 X133.920 Y112.555 F6000.000 ; move to first perimeter point
G1 F1097.09
G1 X133.138 Y112.210 E5.53461 ; perimeter
G1 X132.454 Y111.960 E5.55648 ; perimeter
G1 X131.714 Y111.741 E5.57962 ; perimeter
G1 X130.977 Y111.564 E5.60238 ; perimeter
G1 X130.176 Y111.431 E5.62673 ; perimeter
G1 X129.328 Y111.347 E5.65230 ; perimeter
G1 X128.417 Y111.318 E5.67965 ; perimeter
G1 X127.510 Y111.360 E5.70689 ; perimeter
G1 X126.747 Y111.445 E5.72994 ; perimeter
G1 X125.842 Y111.607 E5.75751 ; perimeter
G1 X125.035 Y111.810 E5.78248 ; perimeter
G1 X124.291 Y112.049 E5.80593 ; perimeter
G1 X123.398 Y112.408 E5.83482 ; perimeter
G1 X122.740 Y112.728 E5.85676 ; perimeter
G1 X122.020 Y113.132 E5.88154 ; perimeter
G1 X121.385 Y113.544 E5.90427 ; perimeter
G1 X120.806 Y113.973 E5.92587 ; perimeter
G1 X120.542 Y114.243 E5.93723 ; perimeter
G1 X120.757 Y114.006 E5.94685 ; perimeter
G1 X121.046 Y113.765 E5.95813 ; perimeter
G1 X121.209 Y113.530 E5.96670 ; perimeter
G1 X121.272 Y113.279 E5.97449 ; perimeter
G1 X121.247 Y113.000 E5.98290 ; perimeter
G1 X121.151 Y112.773 E5.99028 ; perimeter
G1 X122.463 Y112.750 E6.02964 ; perimeter
G1 X122.723 Y112.718 E6.03750 ; perimeter
G1 X123.495 Y112.358 E6.06307 ; perimeter
G1 X124.256 Y112.056 E6.08762 ; perimeter
G1 X124.940 Y111.830 E6.10923 ; perimeter
G1 X125.749 Y111.610 E6.13441 ; perimeter
G1 X126.014 Y111.479 E6.14326 ; perimeter
G1 X126.264 Y111.106 E6.15675 ; perimeter
G1 X126.270 Y110.733 E6.16794 ; perimeter
G1 X127.330 Y111.195 E6.20265 ; perimeter
G1 X127.701 Y111.323 E6.21441 ; perimeter
G1 X128.624 Y111.314 E6.24212 ; perimeter
G1 X129.339 Y111.346 E6.26358 ; perimeter
G1 X130.088 Y111.415 E6.28616 ; perimeter
G1 X131.003 Y111.555 E6.31392 ; perimeter
G1 X131.317 Y111.507 E6.32347 ; perimeter
G1 X131.659 Y111.253 E6.33623 ; perimeter
G1 X131.789 Y110.959 E6.34588 ; perimeter
G1 X132.694 Y111.933 E6.38577 ; perimeter
G1 X132.888 Y112.098 E6.39341 ; perimeter
G1 X133.886 Y112.538 E6.42614 ; perimeter
G1 X133.691 Y112.454 F6000.000 ; move inwards before travel
G1 E1.22614 F2400.00000 ; retract
G92 E0 ; reset extrusion distance
